X: 35
T: Kan xin niang
%%abc-version 2.0
%%abcx-abcm2ps-target-version 5.9.1 (29 Sep 2008)
%%abc-creator hum2abc beta
%%abcx-conversion-date 2013/10/02 07:44:27
%%abc-edited-by Helmut Schaffrath
%%humdrum-veritas 2267497824
%%humdrum-veritas-data 3971793099
%%continueall 1
%%barnumbers 0
L: 1/8
M: 2/4
K: F
D D D F [I:setbarnb 1]| 
G A A c | 
d3A | 
c4 | 
c d d d | 
c dc2 | 
c d d d | 
c dd2 | 
G FD2 | 
G2G2 | 
G cA2 | 
G AA2 | 
G A A A | 
G FD2 | 
G4- | 
G A A c | 
d2d2 | 
d dd2 | 
c dd2 | 
c dd2 | 
c AG2 | 
F GD2 | 
D F G A | 
A2z c | 
d3c | 
A3G | 
F cA2 | 
G FD2 | 
G FD2 | 
F DD2- | 
D4- | 
D2z2 |]  



